X: 3078
T: Bear Dance, The
R: polka
M: 2/4
K: Aminor
eA A/B/c/d/|eA A>B|cc Bc|d2 cd|
eA A/B/c/d/|eA A>B|cc B/A/G/B/|A2 A2|
eA A/B/c/d/|eA A>B|cc Bc|d2 cd|
ea ea|eA A>B|cc B/A/G/B/|A2 A>B|
|:ce d/c/B|ce d/c/B|g/d/B/d/ g/d/B/G/|Af e^g|
ae cB|A/G/A/B/ c/d/e|g/^f/e/d/ B/A/G/B/|1 A2 A>B:|2 A2 A2||

